X:120
T:Maudabawn Chapel
M:4/4
L:1/8
C:Ed Reevy
K:G
G2 FG EGDB, | G,A,B,D EB,DB, | G,A,B,D GABd | gabg eaaf | 
gabg efge | dged B^cdg | (3efg fa gedB |1 AcBA GEEF :|2 AcBA GEED ||
| E2 BE dEBE | (3EEE BE AFDF | ~E3 F GFGB | (3ABA FD A,DFD |
EB (3BBB dB (3BBB | BAFB ABde | f2 af gfe^c | dBAF GE E2 :|
